icons/kalender-ikon.svg

<svg viewBox="0 0 200 200" xmlns="http://www.w3.org/2000/svg"><path d="m56.3,46.3l0,0c5,0 7.5,-2.5 7.5,-6.3l0,-33.7c0,-3.8 -3.8,-6.3 -7.5,-6.3l0,0c-3.8,0 -7.5,2.5 -7.5,6.3l0,32.5c0,3.7 3.7,7.5 7.5,7.5l0,0zm87.5,0l0,0c5,0 7.5,-2.5 7.5,-6.3l0,-33.7c0,-3.8 -2.5,-6.3 -6.3,-6.3l-1.2,0c-3.8,0 -6.3,2.5 -6.3,6.3l0,32.5c-1.2,3.7 2.5,7.5 6.3,7.5l0,0z"/><path d="m85,118.8c2.5,2.5 3.8,2.5 6.3,0l1.2,-1.3c1.3,-1.2 1.3,-2.5 1.3,-2.5l0,0l0,3.8l0,23.7l-7.5,0c-2.5,0 -3.8,1.3 -3.8,3.8l0,3.7c0,2.5 1.3,3.8 3.8,3.8l28.7,0c2.5,0 3.8,-1.3 3.8,-3.8l0,-3.7c0,-2.5 -1.3,-3.8 -3.8,-3.8l-7.5,0l0,-38.7c0,-2.5 -1.2,-3.8 -5,-3.8l-3.7,0c-2.5,0 -3.8,0 -5,1.3l-10,10c-2.5,1.2 -2.5,3.7 0,6.2l1.2,1.3l0,0zm101.3,-95l-16.3,0l0,15c0,13.7 -11.2,25 -25,25l-1.2,0c-13.8,0 -25,-11.3 -25,-25l0,-15l-36.3,0l0,15c0,13.7 -11.2,25 -25,25l-1.2,0c-13.8,0 -25,-11.3 -25,-25l0,-15l-17.5,0c-7.5,0 -13.8,6.2 -13.8,13.7l0,148.8c0,7.5 6.3,13.7 13.8,13.7l172.5,0c7.5,0 13.7,-6.2 13.7,-13.7l0,-148.8c0,-7.5 -6.2,-13.7 -13.7,-13.7l0,0zm-2.5,160l-167.5,0l0,-103.8l166.2,0l0,103.8l1.3,0z"/></svg>

<svg xmlns="http://www.w3.org/2000/svg" viewBox="0 0 200 200" version="1.1"><g transform="translate(37.500000, 0.000000)"><path d="M18.8 46.3L18.8 46.3C23.8 46.3 26.3 43.8 26.3 40L26.3 6.3C26.3 2.5 22.5 0 18.8 0L18.8 0C15 0 11.3 2.5 11.3 6.3L11.3 38.8C11.3 42.5 15 46.3 18.8 46.3L18.8 46.3ZM106.3 46.3L106.3 46.3C111.3 46.3 113.8 43.8 113.8 40L113.8 6.3C113.8 2.5 111.3 0 107.5 0L106.3 0C102.5 0 100 2.5 100 6.3L100 38.8C98.8 42.5 102.5 46.3 106.3 46.3L106.3 46.3Z"/></g><path d="M85 118.8C87.5 121.3 88.8 121.3 91.3 118.8L92.5 117.5C93.8 116.3 93.8 115 93.8 115L93.8 115 93.8 118.8 93.8 142.5 86.3 142.5C83.8 142.5 82.5 143.8 82.5 146.3L82.5 150C82.5 152.5 83.8 153.8 86.3 153.8L115 153.8C117.5 153.8 118.8 152.5 118.8 150L118.8 146.3C118.8 143.8 117.5 142.5 115 142.5L107.5 142.5 107.5 103.8C107.5 101.3 106.3 100 102.5 100L98.8 100C96.3 100 95 100 93.8 101.3L83.8 111.3C81.3 112.5 81.3 115 83.8 117.5L85 118.8 85 118.8ZM186.3 23.8L170 23.8 170 38.8C170 52.5 158.8 63.8 145 63.8L143.8 63.8C130 63.8 118.8 52.5 118.8 38.8L118.8 23.8 82.5 23.8 82.5 38.8C82.5 52.5 71.3 63.8 57.5 63.8L56.3 63.8C42.5 63.8 31.3 52.5 31.3 38.8L31.3 23.8 13.8 23.8C6.3 23.8 0 30 0 37.5L0 186.3C0 193.8 6.3 200 13.8 200L186.3 200C193.8 200 200 193.8 200 186.3L200 37.5C200 30 193.8 23.8 186.3 23.8L186.3 23.8ZM183.8 183.8L16.3 183.8 16.3 80 182.5 80 182.5 183.8 183.8 183.8Z"/></svg>
